X:1
T:Title
%%score [ ( 1 2 ) ( 3 4 ) ] { ( 5 6 ) | ( 7 8 ) }
L:1/8
Q:1/4=120
M:4/4
K:G
V:1 treble nm="Midi_74"
V:2 treble 
V:3 bass nm="Midi_74"
V:4 bass 
V:5 treble nm="Org."
V:6 treble 
V:7 bass 
V:8 bass 
V:1
 G8 | A4 F4 | G8 || d8 | e4 d4 | F4 G4 | A8 || c8 | B4 A4 | G8 || E8 | D4 d4 | %12
 (c2 B2)"^John Camidge\n(1790-1859)" A4 | G8 |] %14
V:2
 D8 | E4 C4 | B,8 || G8 | G4 G4 | D4 D4 |{G} F8 || F8 | G4 D4 | D8 || C8 | D4 D4 | E4 F4 | G8 |] %14
V:3
 G,8 | C4 A,4 | B,8 || D8 | C4 D4 | C4 B,4 | A,8 || A,8 | B,4 F,4 | G,8 || G,8 | G,4 G,4 | G,4 C4 | %13
 B,8 |] %14
V:4
 B,,8 | C,4 D,4 | G,8 || B,8 | C4 B,4 | A,4 G,4 | D,8 || D,8 | D,4 C,4 | B,,8 || C,8 | B,,4 B,,4 | %12
 C,4 D,4 | [G,,G,]8 |] %14
V:5
 G8 | A4 F4 | G8 || d8 | e4 d4 | F4 G4 | A8 || c8 | B4 A4 | G8 || E8 | D4 d4 | c2 B2 A4 | G8 |] %14
V:6
 [G,D]8 | [CE]4 [A,CD]4 | [B,D]8 || [DG]8 | [EG]4 [DG]4 | [CD]4 [B,D]4 |{G} [A,DFA]8 || [DFA]8 | %8
 [DG]4 [DF]4 | D8 || C8 | D4 [DG]4 | [EG]4 [CDF]4 | [B,DG]8 |] %14
V:7
"^8 vi" x8 | x8 | x8 || x8 | x8 | x8 | x8 || x8 | x8 | x8 || x8 | G,4"^8 vi" x4 | x8 | x8 |] %14
V:8
 B,,8 | C,4 D,4 | [G,,D,]8 || [B,,B,]8 | [C,C]4 [B,,B,]4 | [A,,A,]4 [G,,G,]4 | [D,,D,]8 || %7
 [D,,D,]8 | D,4 [C,F,]4 | [B,,G,]8 || [C,G,]8 | B,,4 B,,4 | C,4 D,4 | [G,,G,]8 |] %14

